X:4
T:A Polka
M:2/4
L:1/8
R:Polka
C:Traditional
K:D
d>B | AF DF | EF DF | AF AB | e2 d>B |
AF DF | EF DF | AF AB | d2 :|
|: dB | d2 fd | ef dB | AF AB | e2 |
[1 dB | d2 fd | ef dB | AF AB | d2 :|]
[2 dB | df f/e/f/g/ | af f>g | af ef | d2 |]

